icons/mic-white.svg

<svg width="37" height="37" viewBox="0 0 37 37" fill="none" xmlns="http://www.w3.org/2000/svg">
<path fill-rule="evenodd" clip-rule="evenodd" d="M18.5 22.198C20.9555 22.198 22.9375 20.2159 22.9375 17.7605V8.8855C22.9375 6.43008 20.9555 4.448 18.5 4.448C16.0446 4.448 14.0625 6.43008 14.0625 8.8855V17.7605C14.0625 20.2159 16.0446 22.198 18.5 22.198ZM17.0209 8.8855C17.0209 8.07196 17.6865 7.40633 18.5 7.40633C19.3136 7.40633 19.9792 8.07196 19.9792 8.8855V17.7605C19.9792 18.574 19.3136 19.2397 18.5 19.2397C17.6865 19.2397 17.0209 18.574 17.0209 17.7605V8.8855ZM18.5 25.1563C22.5825 25.1563 25.8959 21.843 25.8959 17.7605H28.8542C28.8542 22.982 24.9936 27.2715 19.9792 27.9963V32.5522H17.0209V27.9963C12.0065 27.2715 8.14587 22.982 8.14587 17.7605H11.1042C11.1042 21.843 14.4175 25.1563 18.5 25.1563Z" fill="white"/>
</svg>

<svg width="37" height="37" fill="none" xmlns="http://www.w3.org/2000/svg"><path fill-rule="evenodd" clip-rule="evenodd" d="M18.5 22.198a4.432 4.432 0 0 0 4.438-4.438V8.886A4.432 4.432 0 0 0 18.5 4.449a4.432 4.432 0 0 0-4.438 4.438v8.875a4.432 4.432 0 0 0 4.438 4.437zM17.02 8.885c0-.813.666-1.479 1.48-1.479s1.48.666 1.48 1.48v8.875c0 .813-.666 1.479-1.48 1.479s-1.48-.666-1.48-1.48V8.886zm1.48 16.271a7.399 7.399 0 0 0 7.396-7.395h2.958c0 5.221-3.86 9.51-8.875 10.235v4.556h-2.958v-4.556c-5.014-.724-8.875-5.014-8.875-10.235h2.958a7.398 7.398 0 0 0 7.396 7.395z" fill="#fff"/></svg>
